!!!OTL: Das Dollerlied. (Einnahme von Dole 1479.) / C.
!!!ARE: Europa, Mitteleuropa, Deutschland
!!!SCT: A0374C
!!!TXL: @@GMH
!!!YEM: Copyright 1995, estate of Helmut Schaffrath.
**kern	**text
!! Mixed meters:  4/4; 4/2
*M4/4	*
*met(c)	*
*clefC1	*
*k[]	*
*D:	*
=1	=1
2ryy	.
{2dd	O
=2	=2
4dd	rei-
4cc	-cher
4b	Gott
4a	im
=3	=3
*M4/2	*
2g	Thro-
2a	-ne,
4b	mit-
2cc	-theil
4cc	vns
=4	=4
2dd	dei-
2b	-ne
2a	Gnad,
4r}	.
{4dd	wol}
=5	=5
*M4/4	*
4dd	durch
4cc	dein
4b	Menſchheit
4a	.
=6	=6
*M4/2	*
2g	fro-
2a	-ne,
4b	daß
2cc	vn-
4cc	-ſer
=7	=7
2dd	Seel
2b	nicht
2a	ſchad,
4r}	.
{4a	die
=8	=8
*M4/4	*
4a	Welt,
4g	die
4a	iſt
4b	vmb-
=9	=9
*M4/2	*
2cc	-fan-
2cc	-gen
4cc	ſo
2a	gar
4a	mit
=10	=10
4g	ſchwerer
4g	.
1f	Noth,
2cc}	ver-
=11	=11
{2cc	-gifft
4cc	iſt
2cc	durch
4a	die
2cc	Schlan-
=12	=12
2a	-gen,
2a	ein
2cc	lan-
4cc	-ge
2dd	Ʒeit
=13-	=13-
.	.
4dd	ver-
*lig	*
4.a	-gan-
8b	.
*Xlig	*
2cc	-gen,
4b	das
2a	noch
=14-	=14-
.	.
4f	kein
2g/	end
1e	nicht
=15	=15
0d/ll}	hat.
==	==
!!!GTL: Einige historisch-politische Lieder
!!!AGN: Romanze, Ballade, Lied, Personenlied
!! M. Praetorius, Mus. Sion. 1610. VIII. 215. Vgl. Souterliedekens
!!    1540 ad Ps. 82.
!!!ONB: ESAC (Essen Associative Code) Database: ALTDEU
!!!AMT: irregular
!!!AIN: vox
!!!EED: Helmut Schaffrath
!!!EEV: 1.0
!!!RDF**kern: l = terminal long
!!!URL-scan: https://rosdok.uni-rostock.de/mcrviewer/recordIdentifier/rosdok_ppn738218359/iview2/phys_0529.iview2?x=-948.0634874302073&y=1193.0461786056403&scale=0.3669911794666851&rotation=0&layout=singlePageLayout&logicalDiv=log_0014
!!!ENC: Anna Maria Matuszewska
!!!EEV: 2024/14/03
*-	*-
